Simply-Black-Circles/scalable/apps/makehuman.svg

<svg xmlns="http://www.w3.org/2000/svg" width="48" height="48" viewBox="0 0 12.7 12.7"><path d="M6.35.083A6.267 6.267 0 0 0 .084 6.35a6.267 6.267 0 0 0 6.268 6.267 6.267 6.267 0 0 0 6.266-6.267A6.267 6.267 0 0 0 6.351.083zm-.017.932a5.388 5.388 0 0 1 5.388 5.39 5.388 5.388 0 0 1-5.388 5.387 5.388 5.388 0 0 1-5.39-5.388 5.388 5.388 0 0 1 5.39-5.389zm.017 1.593a.606.606 0 0 0-.606.605.606.606 0 0 0 .606.606.606.606 0 0 0 .606-.606.606.606 0 0 0-.606-.605zm-4.242.605l2.727 1.819 1.212 6.665v-5.15h.606v5.15l1.212-6.665 2.727-1.819-3.94 1.246v1.178h-.605V4.46l-3.94-1.246z" fill="#1a1a1a"/></svg>

<?xml version="1.0" encoding="UTF-8" standalone="no"?>
<svg
   xmlns:dc="http://purl.org/dc/elements/1.1/"
   xmlns:cc="http://creativecommons.org/ns#"
   xmlns:rdf="http://www.w3.org/1999/02/22-rdf-syntax-ns#"
   xmlns:svg="http://www.w3.org/2000/svg"
   xmlns="http://www.w3.org/2000/svg"
   xmlns:sodipodi="http://sodipodi.sourceforge.net/DTD/sodipodi-0.dtd"
   xmlns:inkscape="http://www.inkscape.org/namespaces/inkscape"
   width="48"
   height="48"
   viewBox="0 0 12.7 12.7"
   version="1.1"
   id="svg4"
   sodipodi:docname="makehuman.svg"
   inkscape:version="0.92.4 (5da689c313, 2019-01-14)">
  <metadata
     id="metadata10">
    <rdf:RDF>
      <cc:Work
         rdf:about="">
        <dc:format>image/svg+xml</dc:format>
        <dc:type
           rdf:resource="http://purl.org/dc/dcmitype/StillImage" />
        <dc:title></dc:title>
      </cc:Work>
    </rdf:RDF>
  </metadata>
  <defs
     id="defs8" />
  <sodipodi:namedview
     pagecolor="#ffffff"
     bordercolor="#666666"
     borderopacity="1"
     objecttolerance="10"
     gridtolerance="10"
     guidetolerance="10"
     inkscape:pageopacity="0"
     inkscape:pageshadow="2"
     inkscape:window-width="1087"
     inkscape:window-height="480"
     id="namedview6"
     showgrid="false"
     inkscape:zoom="4.9166667"
     inkscape:cx="2.1355932"
     inkscape:cy="24"
     inkscape:window-x="0"
     inkscape:window-y="25"
     inkscape:window-maximized="0"
     inkscape:current-layer="svg4" />
  <path
     d="M 6.35,0.083 A 6.267,6.267 0 0 0 0.084,6.35 6.267,6.267 0 0 0 6.352,12.617 6.267,6.267 0 0 0 12.618,6.35 6.267,6.267 0 0 0 6.351,0.083 Z M 6.333,1.015 a 5.388,5.388 0 0 1 5.388,5.39 5.388,5.388 0 0 1 -5.388,5.387 5.388,5.388 0 0 1 -5.39,-5.388 5.388,5.388 0 0 1 5.39,-5.389 z M 6.35,2.608 A 0.606,0.606 0 0 0 5.744,3.213 0.606,0.606 0 0 0 6.35,3.819 0.606,0.606 0 0 0 6.956,3.213 0.606,0.606 0 0 0 6.35,2.608 Z m -4.242,0.605 2.727,1.819 1.212,6.665 v -5.15 h 0.606 v 5.15 L 7.865,5.032 10.592,3.213 6.652,4.459 V 5.637 H 6.047 V 4.46 L 2.107,3.214 Z"
     id="path2"
     inkscape:connector-curvature="0"
     style="fill:#1a1a1a" />
</svg>
